X:2559
T:Squirrel In The Tree
C:anon.
O:England
S:Buddy MacMaster
Z:C.G.P
F:http://abc.musicaviva.com/tunes/england/squirrel-in-the-tree.abc
%Posted at abcusers Jan 2nd 2001 by Johnny Adams.
M:6/8
L:1/8
Q:3/8=110
K:G
|:BBB BBB|B2A GAB|ccc c2B|c2d efg|fff fff|fed cBA|
[1GBde2d|B3Bdc:|[2GBd g2a|g3d2g|| bbb bbb|b2a gfe|dddd2e|
d2c Bdg|fff fff|fed cBA|[1GBde2d|B3Bdg:|[2GBd bfa| g3g3|
W:
W:
W:  From Musica Viva - http://www.musicaviva.com
W:  the Internet center for free sheet music downloads.

